src/icons/mainwindow/paste.svg

<?xml version="1.0" encoding="UTF-8" standalone="no"?><!DOCTYPE svg PUBLIC "-//W3C//DTD SVG 1.1//EN" "http://www.w3.org/Graphics/SVG/1.1/DTD/svg11.dtd"><svg width="100%" height="100%" viewBox="0 0 24 24" version="1.1" xmlns="http://www.w3.org/2000/svg" xmlns:xlink="http://www.w3.org/1999/xlink" xml:space="preserve" xmlns:serif="http://www.serif.com/" style="fill-rule:evenodd;clip-rule:evenodd;stroke-linejoin:round;stroke-miterlimit:2;"><g id="Capa-1" serif:id="Capa 1"><path id="path3118" d="M9,2l-1,1l0,1l-3,0l-2,2l0,15l2,2l14,0l2,-2l0,-15l-2,-2l-3,0l0,-1l-1,-1l-6,0Zm-3,4l2,0l1,1l6,0l1,-1l2,0l1,1l0,13l-1,1l-12,0l-1,-1l0,-13l1,-1Zm1,3l0,2l10,0l0,-2l-10,0Zm0,4l0,2l10,0l0,-2l-10,0Zm0,4l0,2l10,0l0,-2l-10,0Z" style="fill-opacity:0.6;fill-rule:nonzero;"/><path id="path3095" d="M9,1l-1,1l0,1l-3,0l-2,2l0,15l2,2l14,0l2,-2l0,-15l-2,-2l-3,0l0,-1l-1,-1l-6,0Zm-3,4l2,0l1,1l6,0l1,-1l2,0l1,1l0,13l-1,1l-12,0l-1,-1l0,-13l1,-1Zm1,3l0,2l10,0l0,-2l-10,0Zm0,4l0,2l10,0l0,-2l-10,0Zm0,4l0,2l10,0l0,-2l-10,0Z" style="fill:#fff;fill-opacity:0.7;"/></g></svg>

<?xml version="1.0" encoding="UTF-8" standalone="no"?>
<!-- Created with Inkscape (http://www.inkscape.org/) -->

<svg
   xmlns:dc="http://purl.org/dc/elements/1.1/"
   xmlns:cc="http://creativecommons.org/ns#"
   xmlns:rdf="http://www.w3.org/1999/02/22-rdf-syntax-ns#"
   xmlns:svg="http://www.w3.org/2000/svg"
   xmlns="http://www.w3.org/2000/svg"
   xmlns:sodipodi="http://sodipodi.sourceforge.net/DTD/sodipodi-0.dtd"
   xmlns:inkscape="http://www.inkscape.org/namespaces/inkscape"
   width="24"
   height="24"
   id="svg6662"
   version="1.1"
   inkscape:version="0.92.5 (2060ec1f9f, 2020-04-08)"
   sodipodi:docname="paste.svg">
  <defs
     id="defs6664">
    <linearGradient
       gradientUnits="userSpaceOnUse"
       id="linearGradient1022-8-8-3-0-27-9-6"
       x2="0"
       y1="3.0069399"
       y2="11.02436">
      <stop
         offset="0"
         id="stop3001-0-9-4-6-9-1" />
      <stop
         offset="1"
         stop-color="#363636"
         id="stop3003-5-6-6-01-7-5" />
    </linearGradient>
  </defs>
  <sodipodi:namedview
     id="base"
     pagecolor="#ffffff"
     bordercolor="#666666"
     borderopacity="1.0"
     inkscape:pageopacity="0.0"
     inkscape:pageshadow="2"
     inkscape:zoom="11.2"
     inkscape:cx="4.9322244"
     inkscape:cy="10.434228"
     inkscape:document-units="px"
     inkscape:current-layer="capa1"
     showgrid="true"
     inkscape:showpageshadow="false"
     inkscape:window-width="1920"
     inkscape:window-height="1049"
     inkscape:window-x="1920"
     inkscape:window-y="0"
     inkscape:window-maximized="1"
     inkscape:snap-page="true"
     inkscape:snap-center="true"
     inkscape:snap-object-midpoints="true">
    <inkscape:grid
       type="xygrid"
       id="grid3021" />
  </sodipodi:namedview>
  <metadata
     id="metadata6667">
    <rdf:RDF>
      <cc:Work
         rdf:about="">
        <dc:format>image/svg+xml</dc:format>
        <dc:type
           rdf:resource="http://purl.org/dc/dcmitype/StillImage" />
        <dc:title />
      </cc:Work>
    </rdf:RDF>
  </metadata>
  <g
     inkscape:label="Capa 1"
     inkscape:groupmode="layer"
     id="capa1"
     transform="translate(0,-1028.3622)">
    <path
       id="path3118"
       d="m 9,1030.3622 -1,1 0,1 -3,0 -2,2 0,15 2,2 14,0 2,-2 0,-15 -2,-2 -3,0 0,-1 -1,-1 -6,0 z m -3,4 2,0 1,1 6,0 1,-1 2,0 1,1 0,13 -1,1 -12,0 -1,-1 0,-13 1,-1 z m 1,3 0,2 10,0 0,-2 -10,0 z m 0,4 0,2 10,0 0,-2 -10,0 z m 0,4 0,2 10,0 0,-2 -10,0 z"
       style="opacity:0.59999999999999998;color:black;fill:white;fill-opacity:1;fill-rule:nonzero;stroke:none;stroke-width:1;marker:none;visibility:visible;display:inline;overflow:visible;enable-background:accumulate"
       inkscape:connector-curvature="0" />
    <path
       style="opacity:0.7;color:black;fill:#000000;fill-opacity:1;fill-rule:evenodd;stroke:none;stroke-width:1;marker:none;visibility:visible;display:inline;overflow:visible;enable-background:accumulate"
       d="M 9 1 L 8 2 L 8 3 L 5 3 L 3 5 L 3 20 L 5 22 L 19 22 L 21 20 L 21 5 L 19 3 L 16 3 L 16 2 L 15 1 L 9 1 z M 6 5 L 8 5 L 9 6 L 15 6 L 16 5 L 18 5 L 19 6 L 19 19 L 18 20 L 6 20 L 5 19 L 5 6 L 6 5 z M 7 8 L 7 10 L 17 10 L 17 8 L 7 8 z M 7 12 L 7 14 L 17 14 L 17 12 L 7 12 z M 7 16 L 7 18 L 17 18 L 17 16 L 7 16 z "
       transform="translate(0,1028.3622)"
       id="path3095" />
  </g>
</svg>
